X:329
T: ES FUHR EIN FUHRKNECHT UEBERN RHEIN
N: E0186A
O: Europa, Mitteleuropa, Deutschland; Frankreich, Elsass
R: erzaehlendes Volks - Lied, Sage, Familien - Geschichte, Mord
M: 2/4
L: 1/8
K: G
D | G2_B2 | A2d2 | c_BA
D | G2_B2 | A2d2 | c_BA
A | cccd | _BAG
D | G2_B2 | A2d2 | _BAG

@@@ Tune index: 3979
